**harm	**harte	**silbe	**rhyme	**timestamp	**phrase	**leadinstrument	**kern
*M4/4	*M4/4	*	*	*	*	*	*
*	*	*	*	*	*	*	*
*	*	*	*	*	*	*	*
*E:	*E:	*	*	*	*	*	*E:
*	*	*	*	*	*	*	*
*	*	*	*	*	*	*	*
1r;	N	.	.	0	.	r	1r;
=1	=1	=1	=1	=1	=1	=1	=1
*>Letter>A	*>Letter>A	*>Letter>A	*>Letter>A	*>Letter>A	*>Letter>A	*>Letter>A	*>Letter>A
*>Label>Intro	*>Label>Intro	*>Label>Intro	*>Label>Intro	*>Label>Intro	*>Label>Intro	*>Label>Intro	*>Label>Intro
1I	E:maj	.	.	0.372	newline	guitar	1E 1g# 1b
=2	=2	=2	=2	=2	=2	=2	=2
1I	E:maj	.	.	2.438	.	guitar	1E 1g# 1b
=3	=3	=3	=3	=3	=3	=3	=3
1I	E:maj	.	.	4.505	.	guitar	1E 1g# 1b
=4	=4	=4	=4	=4	=4	=4	=4
1I	E:maj	.	.	6.572	.	guitar	1E 1g# 1b
.	.	.	.	.	.	.	.
.	.	There's	.	.	.	.	.
.	.	a	.	.	.	.	.
.	.	storm	.	.	.	.	.
=5	=5	=5	=5	=5	=5	=5	=5
*>Letter>B	*>Letter>B	*>Letter>B	*>Letter>B	*>Letter>B	*>Letter>B	*>Letter>B	*>Letter>B
*>Label>Verse	*>Label>Verse	*>Label>Verse	*>Label>Verse	*>Label>Verse	*>Label>Verse	*>Label>Verse	*>Label>Verse
1I	E:maj	_	.	8.639	newline	voice	1E 1g# 1b
.	.	a-	.	.	.	.	.
.	.	-cross	.	.	.	.	.
.	.	the	.	.	.	.	.
=6	=6	=6	=6	=6	=6	=6	=6
1I	E:maj	val-	.	10.642	.	voice	1E 1g# 1b
.	.	-ley,	a	.	.	.	.
.	.	_	.	.	.	.	.
.	.	clouds	.	.	.	.	.
=7	=7	=7	=7	=7	=7	=7	=7
1IV	A:maj	_	.	12.646	.	voice	1A 1cc# 1ee
.	.	are	.	.	.	.	.
.	.	rol-	.	.	.	.	.
.	.	-ling	.	.	.	.	.
.	.	in	.	.	.	.	.
=8	=8	=8	=8	=8	=8	=8	=8
1IV	A:maj	_	.	14.649	.	voice	1A 1cc# 1ee
.	.	.	.	.	.	.	.
.	.	.	.	.	.	.	.
.	.	the	.	.	.	.	.
=9	=9	=9	=9	=9	=9	=9	=9
1V	B:maj	af-	.	16.653	newline	voice	1B 1dd# 1ff#
.	.	-ter-	.	.	.	.	.
.	.	-noon	.	.	.	.	.
.	.	_	.	.	.	.	.
.	.	is	.	.	.	.	.
=10	=10	=10	=10	=10	=10	=10	=10
1V7	B:7	hea-	.	18.716	.	voice	1B 1dd# 1ff# 1aa
.	.	-vy	a	.	.	.	.
.	.	_	.	.	.	.	.
.	.	on	.	.	.	.	.
.	.	your	.	.	.	.	.
=11	=11	=11	=11	=11	=11	=11	=11
1I	E:maj	shoul-	(B	20.778	.	voice	1E 1g# 1b
.	.	-ders	b)	.	.	.	.
.	.	_	.	.	.	.	.
=12	=12	=12	=12	=12	=12	=12	=12
1I	E:maj	.	.	22.841	.	voice	1E 1g# 1b
.	.	.	.	.	.	.	.
.	.	.	.	.	.	.	.
.	.	There's	.	.	.	.	.
.	.	a	.	.	.	.	.
=13	=13	=13	=13	=13	=13	=13	=13
*>Letter>B	*>Letter>B	*>Letter>B	*>Letter>B	*>Letter>B	*>Letter>B	*>Letter>B	*>Letter>B
*>Label>Verse	*>Label>Verse	*>Label>Verse	*>Label>Verse	*>Label>Verse	*>Label>Verse	*>Label>Verse	*>Label>Verse
1I	E:maj	truck	.	24.903	newline	voice	1E 1g# 1b
.	.	out	.	.	.	.	.
.	.	on	.	.	.	.	.
.	.	_	.	.	.	.	.
.	.	the	.	.	.	.	.
=14	=14	=14	=14	=14	=14	=14	=14
1Im7	E:7	four	.	26.956	.	voice	1E 1g# 1b 1dd#
.	.	lane,	.	.	.	.	.
.	.	_	.	.	.	.	.
.	.	a	.	.	.	.	.
=15	=15	=15	=15	=15	=15	=15	=15
1IV	A:maj	mile	.	29.009	.	voice	1A 1cc# 1ee
.	.	or	.	.	.	.	.
.	.	more	.	.	.	.	.
.	.	a-	.	.	.	.	.
.	.	-way,	.	.	.	.	.
=16	=16	=16	=16	=16	=16	=16	=16
1IV	A:maj	_	.	31.061	.	voice	1A 1cc# 1ee
.	.	.	.	.	.	.	.
.	.	the	.	.	.	.	.
=17	=17	=17	=17	=17	=17	=17	=17
1V	B:maj	whin-	.	33.114	newline	voice	1B 1dd# 1ff#
.	.	-ing	.	.	.	.	.
.	.	of	.	.	.	.	.
.	.	his	.	.	.	.	.
.	.	wheels	.	.	.	.	.
=18	=18	=18	=18	=18	=18	=18	=18
1V7	B:7	_	.	35.174	.	voice	1B 1dd# 1ff# 1aa
.	.	hust	.	.	.	.	.
.	.	makes	.	.	.	.	.
.	.	it	.	.	.	.	.
=19	=19	=19	=19	=19	=19	=19	=19
1I	E:maj	col-	(B	37.233	.	voice	1E 1g# 1b
.	.	-der	b)	.	.	.	.
.	.	_	.	.	.	.	.
=20	=20	=20	=20	=20	=20	=20	=20
1I	E:maj	.	.	39.293	.	voice	1E 1g# 1b
.	.	.	.	.	.	.	.
.	.	He's	.	.	.	.	.
.	.	an	.	.	.	.	.
=21	=21	=21	=21	=21	=21	=21	=21
*>Letter>B	*>Letter>B	*>Letter>B	*>Letter>B	*>Letter>B	*>Letter>B	*>Letter>B	*>Letter>B
*>Label>Verse	*>Label>Verse	*>Label>Verse	*>Label>Verse	*>Label>Verse	*>Label>Verse	*>Label>Verse	*>Label>Verse
1I	E:maj	ho-	.	41.353	newline	voice	1E 1g# 1b
.	.	-ur	.	.	.	.	.
.	.	'way	.	.	.	.	.
.	.	from	.	.	.	.	.
=22	=22	=22	=22	=22	=22	=22	=22
1Im7	E:7	ri-	.	43.418	.	voice	1E 1g# 1b 1dd#
.	.	-ding	.	.	.	.	.
.	.	_	.	.	.	.	.
.	.	on	.	.	.	.	.
.	.	your	.	.	.	.	.
=23	=23	=23	=23	=23	=23	=23	=23
1IV	A:maj	prayers	.	45.483	.	voice	1A 1cc# 1ee
.	.	up	.	.	.	.	.
.	.	_	.	.	.	.	.
.	.	in	.	.	.	.	.
.	.	the	.	.	.	.	.
.	.	sky	.	.	.	.	.
=24	=24	=24	=24	=24	=24	=24	=24
1IV	A:maj	_	.	47.547	.	voice	1A 1cc# 1ee
.	.	.	.	.	.	.	.
=25	=25	=25	=25	=25	=25	=25	=25
1V	B:maj	ten	.	49.612	newline	voice	1B 1dd# 1ff#
.	.	days	.	.	.	.	.
.	.	on	.	.	.	.	.
.	.	_	.	.	.	.	.
.	.	the	.	.	.	.	.
.	.	road	.	.	.	.	.
=26	=26	=26	=26	=26	=26	=26	=26
1V7	B:7	_	.	51.66	.	voice	1B 1dd# 1ff# 1aa
.	.	_	.	.	.	.	.
.	.	.	.	.	.	.	.
.	.	bare-	.	.	.	.	.
.	.	-ly	.	.	.	.	.
=27	=27	=27	=27	=27	=27	=27	=27
1I	E:maj	gone	C	53.707	.	voice	1E 1g# 1b
=28	=28	=28	=28	=28	=28	=28	=28
1I	E:maj	.	.	55.754	.	voice	1E 1g# 1b
.	.	.	.	.	.	.	.
.	.	There's	.	.	.	.	.
.	.	a	.	.	.	.	.
.	.	fire	.	.	.	.	.
=29	=29	=29	=29	=29	=29	=29	=29
*>Letter>B	*>Letter>B	*>Letter>B	*>Letter>B	*>Letter>B	*>Letter>B	*>Letter>B	*>Letter>B
*>Label>Verse	*>Label>Verse	*>Label>Verse	*>Label>Verse	*>Label>Verse	*>Label>Verse	*>Label>Verse	*>Label>Verse
1I	E:maj	_	.	57.802	newline	voice	1E 1g# 1b
.	.	_	.	.	.	.	.
.	.	soft-	.	.	.	.	.
.	.	-ly	.	.	.	.	.
=30	=30	=30	=30	=30	=30	=30	=30
1Im7	E:7	bur-	.	59.852	.	voice	1E 1g# 1b 1dd#
.	.	-ning,	.	.	.	.	.
.	.	_	.	.	.	.	.
.	.	_	.	.	.	.	.
.	.	.	.	.	.	.	.
=31	=31	=31	=31	=31	=31	=31	=31
1IV	A:maj	sup-	.	61.902	.	voice	1A 1cc# 1ee
.	.	-per's	.	.	.	.	.
.	.	on	.	.	.	.	.
.	.	_	.	.	.	.	.
.	.	the	.	.	.	.	.
.	.	stove	.	.	.	.	.
=32	=32	=32	=32	=32	=32	=32	=32
1IV	A:maj	_	.	63.952	.	voice	1A 1cc# 1ee
.	.	.	.	.	.	.	.
.	.	it's	.	.	.	.	.
.	.	the	.	.	.	.	.
.	.	light	.	.	.	.	.
=33	=33	=33	=33	=33	=33	=33	=33
1V	B:maj	_	.	66.002	newline	voice	1B 1dd# 1ff#
.	.	in	.	.	.	.	.
.	.	your	.	.	.	.	.
.	.	eyes	.	.	.	.	.
=34	=34	=34	=34	=34	=34	=34	=34
1V7	B:7	_	.	68.035	.	voice	1B 1dd# 1ff# 1aa
.	.	_	.	.	.	.	.
.	.	that	.	.	.	.	.
.	.	makes	.	.	.	.	.
.	.	him	.	.	.	.	.
=35	=35	=35	=35	=35	=35	=35	=35
1I	E:maj	warm	C	70.068	.	voice	1E 1g# 1b
=36	=36	=36	=36	=36	=36	=36	=36
1I	E:maj	.	.	72.102	.	voice	1E 1g# 1b
=37	=37	=37	=37	=37	=37	=37	=37
*>Letter>C	*>Letter>C	*>Letter>C	*>Letter>C	*>Letter>C	*>Letter>C	*>Letter>C	*>Letter>C
*>Label>Chorus	*>Label>Chorus	*>Label>Chorus	*>Label>Chorus	*>Label>Chorus	*>Label>Chorus	*>Label>Chorus	*>Label>Chorus
1IV	A:maj	Hey,	.	74.135	newline	voice	1A 1cc# 1ee
.	.	it's	.	.	.	.	.
.	.	good	.	.	.	.	.
.	.	to	.	.	.	.	.
=38	=38	=38	=38	=38	=38	=38	=38
1V	B:maj	be	.	76.192	.	voice	1B 1dd# 1ff#
.	.	back	.	.	.	.	.
.	.	home	.	.	.	.	.
.	.	_	.	.	.	.	.
.	.	a-	.	.	.	.	.
=39	=39	=39	=39	=39	=39	=39	=39
1I	E:maj	-gain	D	78.249	.	voice	1E 1g# 1b
.	.	.	.	.	.	.	.
=40	=40	=40	=40	=40	=40	=40	=40
1I	E:maj	.	.	80.307	.	voice	1E 1g# 1b
=41	=41	=41	=41	=41	=41	=41	=41
1IV	A:maj	.	.	82.364	newline	voice	1A 1cc# 1ee
.	.	Some-	.	.	.	.	.
.	.	-times	.	.	.	.	.
.	.	_	.	.	.	.	.
=42	=42	=42	=42	=42	=42	=42	=42
1V	B:maj	this	.	84.426	.	voice	1B 1dd# 1ff#
.	.	old	.	.	.	.	.
.	.	farm	.	.	.	.	.
.	.	_	.	.	.	.	.
.	.	feels	.	.	.	.	.
=43	=43	=43	=43	=43	=43	=43	=43
1I	E:maj	_	.	86.488	.	voice	1E 1g# 1b
.	.	like	.	.	.	.	.
.	.	a	.	.	.	.	.
.	.	long	.	.	.	.	.
.	.	lost	.	.	.	.	.
=44	=44	=44	=44	=44	=44	=44	=44
1IV	A:maj	friend	D	88.55	.	voice	1A 1cc# 1ee
.	.	.	.	.	.	.	.
.	.	Yes,	.	.	.	.	.
.	.	and	.	.	.	.	.
=45	=45	=45	=45	=45	=45	=45	=45
1V	B:maj	hey,	.	90.612	newline	voice	1B 1dd# 1ff#
.	.	it's	.	.	.	.	.
.	.	good	.	.	.	.	.
.	.	_	.	.	.	.	.
.	.	.	.	.	.	.	.
.	.	to	.	.	.	.	.
=46	=46	=46	=46	=46	=46	=46	=46
1V7	B:7	be	.	92.647	.	voice	1B 1dd# 1ff# 1aa
.	.	back	.	.	.	.	.
.	.	home	.	.	.	.	.
.	.	a-	.	.	.	.	.
.	.	-gain	D	.	.	.	.
=47	=47	=47	=47	=47	=47	=47	=47
1I	E:maj	_	.	94.683	.	voice	1E 1g# 1b
.	.	.	.	.	.	.	.
=48	=48	=48	=48	=48	=48	=48	=48
1I	E:maj	.	.	96.718	.	voice	1E 1g# 1b
.	.	.	.	.	.	.	.
.	.	There's	.	.	.	.	.
=49	=49	=49	=49	=49	=49	=49	=49
*>Letter>B	*>Letter>B	*>Letter>B	*>Letter>B	*>Letter>B	*>Letter>B	*>Letter>B	*>Letter>B
*>Label>Verse	*>Label>Verse	*>Label>Verse	*>Label>Verse	*>Label>Verse	*>Label>Verse	*>Label>Verse	*>Label>Verse
1I	E:maj	_	.	98.754	newline	voice	1E 1g# 1b
.	.	all	.	.	.	.	.
.	.	the	.	.	.	.	.
.	.	news	.	.	.	.	.
.	.	to	.	.	.	.	.
=50	=50	=50	=50	=50	=50	=50	=50
1Im7	E:7	tell	.	100.784	.	voice	1E 1g# 1b 1dd#
.	.	him,	.	.	.	.	.
.	.	.	.	.	.	.	.
=51	=51	=51	=51	=51	=51	=51	=51
1IV	A:maj	how'd	.	102.813	.	voice	1A 1cc# 1ee
.	.	you	.	.	.	.	.
.	.	_	.	.	.	.	.
.	.	spend	.	.	.	.	.
.	.	your	.	.	.	.	.
.	.	time	.	.	.	.	.
=52	=52	=52	=52	=52	=52	=52	=52
1IV	A:maj	_	.	104.843	.	voice	1A 1cc# 1ee
.	.	.	.	.	.	.	.
=53	=53	=53	=53	=53	=53	=53	=53
1V	B:maj	.	.	106.873	newline	voice	1B 1dd# 1ff#
.	.	what's	.	.	.	.	.
.	.	the	.	.	.	.	.
.	.	lat-	.	.	.	.	.
.	.	-est	.	.	.	.	.
.	.	thing	.	.	.	.	.
=54	=54	=54	=54	=54	=54	=54	=54
1V7	B:7	_	.	108.903	.	voice	1B 1dd# 1ff# 1aa
.	.	_	.	.	.	.	.
.	.	the	.	.	.	.	.
.	.	neigh-	.	.	.	.	.
.	.	-bors	.	.	.	.	.
=55	=55	=55	=55	=55	=55	=55	=55
1I	E:maj	say?	E	110.934	.	voice	1E 1g# 1b
=56	=56	=56	=56	=56	=56	=56	=56
1I	E:maj	.	.	112.965	.	voice	1E 1g# 1b
.	.	.	.	.	.	.	.
.	.	.	.	.	.	.	.
.	.	And	.	.	.	.	.
.	.	your	.	.	.	.	.
=57	=57	=57	=57	=57	=57	=57	=57
*>Letter>B	*>Letter>B	*>Letter>B	*>Letter>B	*>Letter>B	*>Letter>B	*>Letter>B	*>Letter>B
*>Label>Verse	*>Label>Verse	*>Label>Verse	*>Label>Verse	*>Label>Verse	*>Label>Verse	*>Label>Verse	*>Label>Verse
1I	E:maj	mo-	.	114.995	newline	voice	1E 1g# 1b
.	.	-ther	.	.	.	.	.
.	.	called	.	.	.	.	.
.	.	last	.	.	.	.	.
=58	=58	=58	=58	=58	=58	=58	=58
1Im7	E:7	_	.	117.048	.	voice	1E 1g# 1b 1dd#
.	.	Fri-	.	.	.	.	.
.	.	-day,	.	.	.	.	.
.	.	.	.	.	.	.	.
=59	=59	=59	=59	=59	=59	=59	=59
1IV	A:maj	Sun-	.	119.101	.	voice	1A 1cc# 1ee
.	.	-shine	.	.	.	.	.
.	.	_	.	.	.	.	.
.	.	made	.	.	.	.	.
.	.	her	.	.	.	.	.
.	.	cry	.	.	.	.	.
=60	=60	=60	=60	=60	=60	=60	=60
1IV	A:maj	_	.	121.153	.	voice	1A 1cc# 1ee
.	.	.	.	.	.	.	.
.	.	you	.	.	.	.	.
=61	=61	=61	=61	=61	=61	=61	=61
1V	B:maj	felt	.	123.206	newline	voice	1B 1dd# 1ff#
.	.	the	.	.	.	.	.
.	.	ba-	.	.	.	.	.
.	.	-by	.	.	.	.	.
.	.	move	.	.	.	.	.
=62	=62	=62	=62	=62	=62	=62	=62
1V7	B:7	_	.	125.24	.	voice	1B 1dd# 1ff# 1aa
.	.	just	.	.	.	.	.
.	.	_	.	.	.	.	.
.	.	yes-	.	.	.	.	.
.	.	-ter-	.	.	.	.	.
.	.	-day	E	.	.	.	.
=63	=63	=63	=63	=63	=63	=63	=63
1I	E:maj	_	.	127.274	.	voice	1E 1g# 1b
=64	=64	=64	=64	=64	=64	=64	=64
1I	E:maj	.	.	129.308	.	voice	1E 1g# 1b
=65	=65	=65	=65	=65	=65	=65	=65
*>Letter>C	*>Letter>C	*>Letter>C	*>Letter>C	*>Letter>C	*>Letter>C	*>Letter>C	*>Letter>C
*>Label>Chorus	*>Label>Chorus	*>Label>Chorus	*>Label>Chorus	*>Label>Chorus	*>Label>Chorus	*>Label>Chorus	*>Label>Chorus
1IV	A:maj	Hey,	.	131.343	newline	voice	1A 1cc# 1ee
.	.	it's	.	.	.	.	.
.	.	good	.	.	.	.	.
.	.	to	.	.	.	.	.
=66	=66	=66	=66	=66	=66	=66	=66
1V	B:maj	be	.	133.379	.	voice	1B 1dd# 1ff#
.	.	back	.	.	.	.	.
.	.	home	.	.	.	.	.
.	.	_	.	.	.	.	.
.	.	a-	.	.	.	.	.
=67	=67	=67	=67	=67	=67	=67	=67
1I	E:maj	-gain	D	135.416	.	voice	1E 1g# 1b
.	.	yes	.	.	.	.	.
.	.	it	.	.	.	.	.
.	.	is	.	.	.	.	.
=68	=68	=68	=68	=68	=68	=68	=68
1I	E:maj	_	.	137.452	.	voice	1E 1g# 1b
.	.	.	.	.	.	.	.
.	.	.	.	.	.	.	.
=69	=69	=69	=69	=69	=69	=69	=69
1IV	A:maj	.	.	139.489	newline	voice	1A 1cc# 1ee
.	.	Some-	.	.	.	.	.
.	.	-times	.	.	.	.	.
.	.	_	.	.	.	.	.
=70	=70	=70	=70	=70	=70	=70	=70
1V	B:maj	this	.	141.536	.	voice	1B 1dd# 1ff#
.	.	old	.	.	.	.	.
.	.	farm	.	.	.	.	.
.	.	_	.	.	.	.	.
.	.	feels	.	.	.	.	.
=71	=71	=71	=71	=71	=71	=71	=71
1I	E:maj	_	.	143.583	.	voice	1E 1g# 1b
.	.	like	.	.	.	.	.
.	.	a	.	.	.	.	.
.	.	long	.	.	.	.	.
.	.	lost	.	.	.	.	.
=72	=72	=72	=72	=72	=72	=72	=72
1IV	A:maj	friend	D	145.629	.	voice	1A 1cc# 1ee
.	.	.	.	.	.	.	.
.	.	Yes,	.	.	.	.	.
.	.	and	.	.	.	.	.
=73	=73	=73	=73	=73	=73	=73	=73
1V	B:maj	hey,	.	147.676	newline	voice	1B 1dd# 1ff#
.	.	it's	.	.	.	.	.
.	.	good	.	.	.	.	.
.	.	_	.	.	.	.	.
.	.	.	.	.	.	.	.
.	.	to	.	.	.	.	.
=74	=74	=74	=74	=74	=74	=74	=74
1V7	B:7	be	.	149.696	.	voice	1B 1dd# 1ff# 1aa
.	.	back	.	.	.	.	.
.	.	home	.	.	.	.	.
.	.	a-	.	.	.	.	.
.	.	-gain	D	.	.	.	.
=75	=75	=75	=75	=75	=75	=75	=75
1I	E:maj	_	.	151.716	.	voice	1E 1g# 1b
.	.	.	.	.	.	.	.
=76	=76	=76	=76	=76	=76	=76	=76
1Im7	E:7	.	.	153.736	.	voice	1E 1g# 1b 1dd#
=77	=77	=77	=77	=77	=77	=77	=77
*>Letter>D	*>Letter>D	*>Letter>D	*>Letter>D	*>Letter>D	*>Letter>D	*>Letter>D	*>Letter>D
*>Label>Bridge	*>Label>Bridge	*>Label>Bridge	*>Label>Bridge	*>Label>Bridge	*>Label>Bridge	*>Label>Bridge	*>Label>Bridge
1IV	A:maj	Oh,	.	155.756	newline	voice	1A 1cc# 1ee
.	.	the	.	.	.	.	.
.	.	time	.	.	.	.	.
.	.	that	.	.	.	.	.
=78	=78	=78	=78	=78	=78	=78	=78
1V	B:maj	I	.	157.791	.	voice	1B 1dd# 1ff#
.	.	can	.	.	.	.	.
.	.	lay	.	.	.	.	.
.	.	this	.	.	.	.	.
.	.	tired	.	.	.	.	.
=79	=79	=79	=79	=79	=79	=79	=79
1I	E:maj	_	.	159.825	.	voice	1E 1g# 1b
.	.	old	.	.	.	.	.
.	.	_	.	.	.	.	.
.	.	bo-	.	.	.	.	.
.	.	-dy	.	.	.	.	.
.	.	down	.	.	.	.	.
=80	=80	=80	=80	=80	=80	=80	=80
1IV	A:maj	_	.	161.86	.	voice	1A 1cc# 1ee
.	.	.	.	.	.	.	.
=81	=81	=81	=81	=81	=81	=81	=81
1ii	F#:min	Feel	.	163.894	newline	voice	1F# 1a 1cc#
.	.	your	.	.	.	.	.
.	.	fin-	.	.	.	.	.
.	.	_	.	.	.	.	.
.	.	-gers	.	.	.	.	.
=82	=82	=82	=82	=82	=82	=82	=82
1V	B:maj	_	.	165.925	.	voice	1B 1dd# 1ff#
.	.	feat-	.	.	.	.	.
.	.	-her	.	.	.	.	.
.	.	soft	.	.	.	.	.
.	.	_	.	.	.	.	.
.	.	.	.	.	.	.	.
.	.	u-	.	.	.	.	.
=83	=83	=83	=83	=83	=83	=83	=83
1I	E:maj	-pon	.	167.955	.	voice	1E 1g# 1b
.	.	me	.	.	.	.	.
=84	=84	=84	=84	=84	=84	=84	=84
1Im7	E:7	_	.	169.985	.	voice	1E 1g# 1b 1dd#
.	.	.	.	.	.	.	.
.	.	.	.	.	.	.	.
.	.	The	.	.	.	.	.
=85	=85	=85	=85	=85	=85	=85	=85
1IV	A:maj	kis-	.	172.016	newline	voice	1A 1cc# 1ee
.	.	-ses	.	.	.	.	.
.	.	_	.	.	.	.	.
.	.	that	.	.	.	.	.
.	.	I	.	.	.	.	.
=86	=86	=86	=86	=86	=86	=86	=86
1V	B:maj	live	.	174.041	.	voice	1B 1dd# 1ff#
.	.	for,	.	.	.	.	.
.	.	_	.	.	.	.	.
.	.	_	.	.	.	.	.
.	.	the	.	.	.	.	.
=87	=87	=87	=87	=87	=87	=87	=87
1I	E:maj	love	.	176.066	.	voice	1E 1g# 1b
.	.	that	.	.	.	.	.
.	.	lights	.	.	.	.	.
.	.	my	.	.	.	.	.
.	.	way	.	.	.	.	.
=88	=88	=88	=88	=88	=88	=88	=88
1IV	A:maj	_	.	178.092	.	voice	1A 1cc# 1ee
.	.	.	.	.	.	.	.
.	.	the	.	.	.	.	.
=89	=89	=89	=89	=89	=89	=89	=89
1ii	F#:min	hap-	.	180.117	newline	voice	1F# 1a 1cc#
.	.	-pi-	.	.	.	.	.
.	.	-ness	.	.	.	.	.
.	.	_	.	.	.	.	.
.	.	_	.	.	.	.	.
.	.	that	.	.	.	.	.
=90	=90	=90	=90	=90	=90	=90	=90
1IV	A:maj	li-	.	182.166	.	voice	1A 1cc# 1ee
.	.	-ving	.	.	.	.	.
.	.	with	.	.	.	.	.
.	.	you	.	.	.	.	.
=91	=91	=91	=91	=91	=91	=91	=91
1V	B:maj	brings	.	184.215	.	voice	1B 1dd# 1ff#
.	.	me	.	.	.	.	.
=92	=92	=92	=92	=92	=92	=92	=92
1V	B:maj	_	.	186.264	.	voice	1B 1dd# 1ff#
.	.	It's	.	.	.	.	.
.	.	the	.	.	.	.	.
=93	=93	=93	=93	=93	=93	=93	=93
*>Letter>B	*>Letter>B	*>Letter>B	*>Letter>B	*>Letter>B	*>Letter>B	*>Letter>B	*>Letter>B
*>Label>Verse	*>Label>Verse	*>Label>Verse	*>Label>Verse	*>Label>Verse	*>Label>Verse	*>Label>Verse	*>Label>Verse
1I	E:maj	sweet-	.	188.312	newline	voice	1E 1g# 1b
.	.	-est	.	.	.	.	.
.	.	thing	.	.	.	.	.
.	.	I	.	.	.	.	.
.	.	know	.	.	.	.	.
=94	=94	=94	=94	=94	=94	=94	=94
1Im7	E:7	of,	.	190.351	.	voice	1E 1g# 1b 1dd#
.	.	.	.	.	.	.	.
.	.	just	.	.	.	.	.
=95	=95	=95	=95	=95	=95	=95	=95
1IV	A:maj	_	.	192.389	.	voice	1A 1cc# 1ee
.	.	spen-	.	.	.	.	.
.	.	-ding	.	.	.	.	.
.	.	time	.	.	.	.	.
.	.	_	.	.	.	.	.
.	.	with	.	.	.	.	.
.	.	you	.	.	.	.	.
=96	=96	=96	=96	=96	=96	=96	=96
1IV	A:maj	_	.	194.427	.	voice	1A 1cc# 1ee
.	.	.	.	.	.	.	.
.	.	.	.	.	.	.	.
.	.	It's	.	.	.	.	.
.	.	the	.	.	.	.	.
=97	=97	=97	=97	=97	=97	=97	=97
1V	B:maj	lit-	.	196.466	newline	voice	1B 1dd# 1ff#
.	.	-tle	.	.	.	.	.
.	.	things	.	.	.	.	.
.	.	_	.	.	.	.	.
=98	=98	=98	=98	=98	=98	=98	=98
1V7	B:7	.	.	198.491	.	voice	1B 1dd# 1ff# 1aa
.	.	that	.	.	.	.	.
.	.	make	.	.	.	.	.
.	.	a	.	.	.	.	.
.	.	house	.	.	.	.	.
.	.	.	.	.	.	.	.
.	.	a	.	.	.	.	.
=99	=99	=99	=99	=99	=99	=99	=99
1I	E:maj	home	C	200.516	.	voice	1E 1g# 1b
=100	=100	=100	=100	=100	=100	=100	=100
1I	E:maj	.	.	202.541	.	voice	1E 1g# 1b
.	.	Like	.	.	.	.	.
.	.	a	.	.	.	.	.
=101	=101	=101	=101	=101	=101	=101	=101
*>Letter>B	*>Letter>B	*>Letter>B	*>Letter>B	*>Letter>B	*>Letter>B	*>Letter>B	*>Letter>B
*>Label>Verse	*>Label>Verse	*>Label>Verse	*>Label>Verse	*>Label>Verse	*>Label>Verse	*>Label>Verse	*>Label>Verse
1I	E:maj	fire	.	204.566	newline	voice	1E 1g# 1b
.	.	_	.	.	.	.	.
.	.	soft-	.	.	.	.	.
.	.	-ly	.	.	.	.	.
=102	=102	=102	=102	=102	=102	=102	=102
1I	E:maj	_	.	206.582	.	voice	1E 1g# 1b
.	.	bur-	.	.	.	.	.
.	.	-ning	.	.	.	.	.
.	.	_	.	.	.	.	.
=103	=103	=103	=103	=103	=103	=103	=103
1IV	A:maj	sup-	.	208.597	.	voice	1A 1cc# 1ee
.	.	-per	.	.	.	.	.
.	.	on	.	.	.	.	.
.	.	the	.	.	.	.	.
.	.	stove	.	.	.	.	.
=104	=104	=104	=104	=104	=104	=104	=104
1IV	A:maj	_	.	210.613	.	voice	1A 1cc# 1ee
.	.	.	.	.	.	.	.
.	.	the	.	.	.	.	.
=105	=105	=105	=105	=105	=105	=105	=105
1V	B:maj	light	.	212.628	newline	voice	1B 1dd# 1ff#
.	.	in	.	.	.	.	.
.	.	your	.	.	.	.	.
.	.	eyes	.	.	.	.	.
=106	=106	=106	=106	=106	=106	=106	=106
1V7	B:7	_	.	214.678	.	voice	1B 1dd# 1ff# 1aa
.	.	_	.	.	.	.	.
.	.	that	.	.	.	.	.
.	.	makes	.	.	.	.	.
.	.	me	.	.	.	.	.
=107	=107	=107	=107	=107	=107	=107	=107
1I	E:maj	warm	C	216.728	.	voice	1E 1g# 1b
=108	=108	=108	=108	=108	=108	=108	=108
1Im7	E:7	.	.	218.777	.	voice	1E 1g# 1b 1dd#
=109	=109	=109	=109	=109	=109	=109	=109
*>Letter>C	*>Letter>C	*>Letter>C	*>Letter>C	*>Letter>C	*>Letter>C	*>Letter>C	*>Letter>C
*>Label>Chorus	*>Label>Chorus	*>Label>Chorus	*>Label>Chorus	*>Label>Chorus	*>Label>Chorus	*>Label>Chorus	*>Label>Chorus
1IV	A:maj	Hey,	.	220.827	newline	voice	1A 1cc# 1ee
.	.	it's	.	.	.	.	.
.	.	good	.	.	.	.	.
.	.	to	.	.	.	.	.
=110	=110	=110	=110	=110	=110	=110	=110
1V	B:maj	be	.	222.858	.	voice	1B 1dd# 1ff#
.	.	back	.	.	.	.	.
.	.	home	.	.	.	.	.
.	.	_	.	.	.	.	.
.	.	a-	.	.	.	.	.
=111	=111	=111	=111	=111	=111	=111	=111
1I	E:maj	-gain	D	224.889	.	voice	1E 1g# 1b
.	.	.	.	.	.	.	.
=112	=112	=112	=112	=112	=112	=112	=112
1I	E:maj	.	.	226.92	.	voice	1E 1g# 1b
=113	=113	=113	=113	=113	=113	=113	=113
1IV	A:maj	.	.	228.951	newline	voice	1A 1cc# 1ee
.	.	Some-	.	.	.	.	.
.	.	-times	.	.	.	.	.
.	.	_	.	.	.	.	.
=114	=114	=114	=114	=114	=114	=114	=114
1V	B:maj	this	.	230.973	.	voice	1B 1dd# 1ff#
.	.	old	.	.	.	.	.
.	.	farm	.	.	.	.	.
.	.	_	.	.	.	.	.
.	.	feels	.	.	.	.	.
=115	=115	=115	=115	=115	=115	=115	=115
1I	E:maj	_	.	232.995	.	voice	1E 1g# 1b
.	.	like	.	.	.	.	.
.	.	a	.	.	.	.	.
.	.	long	.	.	.	.	.
.	.	lost	.	.	.	.	.
=116	=116	=116	=116	=116	=116	=116	=116
1IV	A:maj	friend	D	235.017	.	voice	1A 1cc# 1ee
.	.	.	.	.	.	.	.
.	.	Yes,	.	.	.	.	.
.	.	and	.	.	.	.	.
=117	=117	=117	=117	=117	=117	=117	=117
1V	B:maj	hey,	.	237.039	newline	voice	1B 1dd# 1ff#
.	.	it's	.	.	.	.	.
.	.	good	.	.	.	.	.
.	.	_	.	.	.	.	.
.	.	.	.	.	.	.	.
.	.	to	.	.	.	.	.
=118	=118	=118	=118	=118	=118	=118	=118
1V7	B:7	be	.	239.067	.	voice	1B 1dd# 1ff# 1aa
.	.	back	.	.	.	.	.
.	.	home	.	.	.	.	.
.	.	a-	.	.	.	.	.
.	.	-gain	D	.	.	.	.
=119	=119	=119	=119	=119	=119	=119	=119
1I	E:maj	_	.	241.096	.	voice	1E 1g# 1b
.	.	.	.	.	.	.	.
=120	=120	=120	=120	=120	=120	=120	=120
1I	E:maj	.	.	243.124	.	voice	1E 1g# 1b
=121	=121	=121	=121	=121	=121	=121	=121
*>Letter>C	*>Letter>C	*>Letter>C	*>Letter>C	*>Letter>C	*>Letter>C	*>Letter>C	*>Letter>C
*>Label>Chorus	*>Label>Chorus	*>Label>Chorus	*>Label>Chorus	*>Label>Chorus	*>Label>Chorus	*>Label>Chorus	*>Label>Chorus
1IV	A:maj	Hey,	.	245.153	newline	voice	1A 1cc# 1ee
.	.	it's	.	.	.	.	.
.	.	good	.	.	.	.	.
.	.	to	.	.	.	.	.
=122	=122	=122	=122	=122	=122	=122	=122
1V7	B:7	be	.	247.157	.	voice	1B 1dd# 1ff# 1aa
.	.	back	.	.	.	.	.
.	.	home	.	.	.	.	.
.	.	_	.	.	.	.	.
.	.	_	.	.	.	.	.
.	.	a-	.	.	.	.	.
=123	=123	=123	=123	=123	=123	=123	=123
1I	E:maj	-gain	D	249.162	.	voice	1E 1g# 1b
.	.	_	.	.	.	.	.
.	.	you	.	.	.	.	.
.	.	know	.	.	.	.	.
.	.	it	.	.	.	.	.
=124	=124	=124	=124	=124	=124	=124	=124
1Im7	E:7	is	.	251.166	.	voice	1E 1g# 1b 1dd#
.	.	.	.	.	.	.	.
.	.	.	.	.	.	.	.
=125	=125	=125	=125	=125	=125	=125	=125
1IV	A:maj	.	.	253.171	newline	voice	1A 1cc# 1ee
.	.	Some-	.	.	.	.	.
.	.	-times	.	.	.	.	.
.	.	_	.	.	.	.	.
=126	=126	=126	=126	=126	=126	=126	=126
1V7	B:7	this	.	255.202	.	voice	1B 1dd# 1ff# 1aa
.	.	old	.	.	.	.	.
.	.	farm	.	.	.	.	.
.	.	_	.	.	.	.	.
.	.	feels	.	.	.	.	.
=127	=127	=127	=127	=127	=127	=127	=127
1I	E:maj	_	.	257.233	.	voice	1E 1g# 1b
.	.	like	.	.	.	.	.
.	.	a	.	.	.	.	.
.	.	long	.	.	.	.	.
.	.	lost	.	.	.	.	.
=128	=128	=128	=128	=128	=128	=128	=128
1IV	A:maj	friend	D	259.264	.	voice	1A 1cc# 1ee
.	.	.	.	.	.	.	.
=129	=129	=129	=129	=129	=129	=129	=129
1V	B:maj	hey,	.	261.294	newline	voice	1B 1dd# 1ff#
.	.	it's	.	.	.	.	.
.	.	good	.	.	.	.	.
.	.	.	.	.	.	.	.
.	.	to	.	.	.	.	.
=130	=130	=130	=130	=130	=130	=130	=130
1V7	B:7	be	.	263.316	.	voice	1B 1dd# 1ff# 1aa
.	.	back	.	.	.	.	.
.	.	home	.	.	.	.	.
.	.	a-	.	.	.	.	.
.	.	-gain	D	.	.	.	.
=131	=131	=131	=131	=131	=131	=131	=131
1I	E:maj	_	.	265.338	.	voice	1E 1g# 1b
.	.	.	.	.	.	.	.
=132	=132	=132	=132	=132	=132	=132	=132
1I	E:maj	.	.	267.36	.	voice	1E 1g# 1b
.	.	.	.	.	.	.	.
.	.	I	.	.	.	.	.
.	.	said	.	.	.	.	.
.	.	hey,	.	.	.	.	.
=133	=133	=133	=133	=133	=133	=133	=133
*>Label>>Outro	*>Label>>Outro	*>Label>>Outro	*>Label>>Outro	*>Label>>Outro	*>Label>>Outro	*>Label>>Outro	*>Label>>Outro
1V	B:maj	_	.	269.381	newline	voice	1B 1dd# 1ff#
.	.	it's	.	.	.	.	.
.	.	good	.	.	.	.	.
.	.	_	.	.	.	.	.
.	.	.	.	.	.	.	.
.	.	to	.	.	.	.	.
=134	=134	=134	=134	=134	=134	=134	=134
1V7	B:7	be	.	271.387	.	voice	1B 1dd# 1ff# 1aa
.	.	back	.	.	.	.	.
.	.	home	.	.	.	.	.
.	.	_	.	.	.	.	.
.	.	a-	.	.	.	.	.
=135	=135	=135	=135	=135	=135	=135	=135
1IV	A:maj	-gain	D	273.393	.	voice	1A 1cc# 1ee
.	.	_	.	.	.	.	.
.	.	_	.	.	.	.	.
=136	=136	=136	=136	=136	=136	=136	=136
2IV	A:maj	.	.	275.399	.	voice	1A 1cc# 1ee
2I	E:maj	.	.	276.402	.	voice	2E 2g# 2b
1r;	N	.	.	282.169	.	r	1r;
1r;	N	.	.	286.485	.	r	1r;
*-	*-	*-	*-	*-	*-	*-	*-
!!!BillboardChartDate: 1974/12/28, 1974/12/14
!!!BillboardPeak: 5, 5
!!!BillboardWeeksOnChart: 16, 16
!!!COC: John Denver
!!!ENC: Nathaniel Condit-Schultz
!!!EST: Awating manual error checking and editing.
!!!OTL: Back Home Again
!!!RDF**harte: Chris Harte's syntax, used by MIREX
!!!RDF**harmony: **recip + pitch class of root + harmonic quality
!!!RDF**leadinstrument: original McGill primary instrumentation annotation
!!!RDF**phrase: newline = linebreak in original McGill transcription
!!!RDF**timestamp: McGill audio timestamp in seconds
!!!RDT: 2017/01/12/
!!!SampleActualRank: 65, 42
!!!SampleID#: 235, 446
!!!SampleTargetRank: 65, 44
!!!MBID: ed28b556-0d1d-433b-96b4-8cda54da9718
